X:1012
T:Ceart Na Cine Daona
O:england
M:4/4
L:1/8
Q:140
C:Traditional Celtic
R:Hornpipe
B:FOUR WINDS MUSIC COLLECTION
K:G
GA | (3BcB  (3ABA (3GAG  (3FGF | EFGA  B2ef | gfed  edBd |
cBAG A2GA | (3BcB  (3ABA  (3GAG  (3FGF |EFGA  B2ef |
gfed  Bgfg |1 e2 e2 e2 :|2 e2 E2 E2 |
|: ga | babg efga | babg egfe | d2 d^c defg | afdf a2 gf | edef gfga |
(3bag (3agf  gfef | gfed Bgfg |1 e2 E2 E2 :|2 e2 E2 E4-|-E2 z4 |]
W:Arrangement: Patrick O. Young, 1999.


